X: 40788
T: Towie Castle
R: polka
M: 2/4
K: Amajor
E|C>F A/G/F/E/|C>F F>G|A>c BG|E2 EG|
C>F A/G/F/E/|C>F F>f|e>c cBAG|F2 FE|
C>F A/G/F/E/|c>F A/G/F/E/|B,>E G/F/E/G/|B>E G/F/E/F/|
C>F E>G|F>A G>f|e>c c/B/A/G/|F2 Fc||
f>g a/g/f/e/|f2 c>f|e>g c>e|B>e GE|
f>g a/g/f/e/|f2 c>f|B/c/e/c/ B/G/E/G/|F2 Ff|
f>g a/g/f/e/|f2 c>f|e>f g> f|e>B GE|
F/G/A/F/ G/A/B/G/|A/B/c/A/ B/c/d/B/|c/f/e/g/ f/c/B/G/|AF F||

